X:1
T:Hymne: O großer Gott
T:Maximilian Stadler
T:Hymne
T:Nach einem Chor aus dem Oratorium „Die Befreyung von Jerusalem“
T:CPDL   —   Creative Commons Attribution Non Commercial 3.0
T:CPDL   —   Creative Commons Attribution Non Commercial 3.0
T:CPDL   —   Creative Commons Attribution Non Commercial 3.0
T:CPDL   —   Creative Commons Attribution Non Commercial 3.0
C:Maximilian Stadler
Z:CPDL   —   Creative Commons Attribution Non Commercial 3.0
%%score [ ( 1 2 ) 3 4 ]
L:1/8
Q:1/4=80
M:4/4
K:E
V:1 treble nm="Sopran\nAlt"
V:2 treble 
V:3 treble-8 nm="Tenor"
V:4 bass nm="Bass"
V:1
"^Feierlich"!<(! B4!<)! e3 e |!>(! d6!>)! z2 |!<(! d4!<)! f3 d |!>(! e6!>)! z2 |!p! B4 A2 G2 | %5
w: 1.  O gro- ßer|Gott!|All- mächt'- ger|Gott!|Wer rein sich|
w: 2.  O gött- lich|Wort!|O heil'- ges|Wort!|Wohl dem, der|
w: 3.  O gu- ter|Hirt!|O treu- er|Hirt!|Sei von uns|
 F2!<(! E2 F2!<)! G2 |!>(! A6!>)! A2 |!<(! G2 G2!<)! c2 c2 |!mf! B4!>(! ^A4!>)! | B4 z2!mf! D2 | %10
w: dei- nem Diens- te|weiht, der|hat es nim- mer|noch be-|reut. Mag|
w: es im Her- zen|spürt, wenn|Gott ihn wun- der-|bar ge-|führt; es|
w: in- nig froh be-|grüßt, du|bist's, den un- ser|Herz um-|schließt! O|
 D2 E2"^cresc." F2 G2 |!f! A6 A2 |!>(! A4 G2!>)!!mf! G2 | G2!<(! A2 B2!<)! c2 |!f! =d6 d2 | %15
w: ihn die Höl- le|selbst be-|krie- gen, nicht|wird er wan- ken,|er wird|
w: kann ihn nichts vom|We- ge|schei- den, die|Stim- me Got- tes|wird ihn|
w: lei- te dei- ne|treu- e|Her- de, dass|sie einst glück- lich|durch dich|
!>(! =d4!>)! c2!p! c2 | c4 B4 | A2 B2 G2 A2 | F6!f! B2 | e6 B2 | A2 G2 F3 F |!>(! G6!>)! z2 | %22
w: sie- gen! Wer|kind- lich|stets dem Höchs- ten|traut, auf|Fel- sen-|grund hat er ge-|baut.|
w: lei- ten, und|al- ler|Mut und al- le|Kraft, von|o- ben|wird sie ihm ver-|schafft.|
w: wer- de, und|füh- re|sie zu al- ler|Zeit zur|Quel- le|wah- rer Se- lig-|keit.|
!pp! A4 A3 A | G6 z2 |!f!!<(! d4!<)! f3 d |!>(! !fermata!e8!>)! |] %26
w: O gro- ßer|Gott!|All- mächt'- ger|Gott!|
w: O gött- lich|Wort!|O heil'- ges|Wort!|
w: O gu- ter|Hirt!|O treu- er|Hirt!|
V:2
 G4 G3 G | A6 x2 | A4 A3 F | E6 x2 | E4 D2 E2 | D2 E2 D2 E2 | F6 F2 | E2 E2 G2 G2 | F4 (F2 E2) | %9
 D4 x2 B,2 | B,2 C2 D2 E2 | F6 F2 | F4 E2 E2 | E2 F2 G2 A2 | B6 B2 | B4 A2 E2 | E4 ^E4 | %17
 F2 F2 =E2 F2 | D6 F2 | E6 E2 | D2 E2 E2 D2 | E6 x2 | F4 F3 F | E6 x2 | F4 A3 A | G8 |] %26
V:3
!<(! e4!<)! B3 B |!>(! B6!>)! z2 |!<(! B4!<)! d3 B |!>(! B6!>)! z2 |!p! B4 B2 B2 | %5
w: 1.  O gro- ßer|Gott!|All- mächt'- ger|Gott!|Wer rein sich|
w: 2.  O gött- lich|Wort!|O heil'- ges|Wort!|Wohl dem, der|
w: 3.  O gu- ter|Hirt!|O treu- er|Hirt!|Sei von uns|
 B2!<(! B2 B2!<)! B2 |!>(! B6!>)! B2 |!<(! B2 B2!<)! e2 e2 |!mf! d4!>(! c4!>)! | B4 z2!mf! F2 | %10
w: dei- nem Diens- te|weiht, der|hat es nim- mer|noch be-|reut. Mag|
w: es im Her- zen|spürt, wenn|Gott ihn wun- der-|bar ge-|führt; es|
w: in- nig froh be-|grüßt, du|bist's, den un- ser|Herz um-|schließt! O|
 B2 B2"^cresc." B2 B2 |!f! B6 B2 |!>(! B4 B2!>)!!mf! B2 | e2!<(! e2 e2!<)! e2 |!f! e6 e2 | %15
w: ihn die Höl- le|selbst be-|krie- gen, nicht|wird er wan- ken,|er wird|
w: kann ihn nichts vom|We- ge|schei- den, die|Stim- me Got- tes|wird ihn|
w: lei- te dei- ne|treu- e|Her- de, dass|sie einst glück- lich|durch dich|
!>(! e4!>)! e2!p! A2 | c4 c4 | c2 B2 B2 c2 | B6!f! d2 | B6 B2 | B2 B2 c2 B2 |!>(! B6!>)! z2 | %22
w: sie- gen! Wer|kind- lich|stets dem Höchs- ten|traut, auf|Fel- sen-|grund hat er ge-|baut.|
w: lei- ten, und|al- ler|Mut und al- le|Kraft, von|o- ben|wird sie ihm ver-|schafft.|
w: wer- de, und|füh- re|sie zu al- ler|Zeit zur|Quel- le|wah- rer Se- lig-|keit.|
!pp! B4 B3 B | B6 z2 |!f!!<(! B4!<)! [Bd]3 [Bf] |!>(! !fermata![Be]8!>)! |] %26
w: O gro- ßer|Gott!|All- mächt'- ger|Gott!|
w: O gött- lich|Wort!|O heil'- ges|Wort!|
w: O gu- ter|Hirt!|O treu- er|Hirt!|
V:4
!<(! E,4!<)! E,3 E, |!>(! F,6!>)! z2 |!<(! F,4!<)! [B,,B,]3 [A,,A,] |!>(! [G,,G,]6!>)! z2 | %4
w: ||||
w: ||||
w: ||||
!p! G,4 F,2 E,2 | A,2!<(! G,2 F,2!<)! E,2 |!>(! D,6!>)! D,2 |!<(! E,2 E,2!<)! C,2 C,2 | %8
w: ||||
w: ||||
w: ||||
!mf! F,4!>(! [F,,F,]4!>)! | B,,4 z2!mf! B,,2 | B,,6"^cresc." B,,2 | %11
w: |* Mag|ihn die|
w: |* es|kann ihn|
w: |* O|lei- te|
!f! !^!B,,2 !^!B,,2 !^!C,2 !^!D,2 |!>(! E,4 E,2!>)!!mf! E,2 | E,6 E,2 | E,2 E,2 F,2 G,2 | %15
w: Höl- le selbst be-|krie- gen, nicht|wird er|wan- ken, er wird|
w: nichts vom We- ge|schei- den, die|Stim- me|Got- tes wird ihn|
w: dei- ne treu- e|Her- de, dass|sie einst|glück- lich durch dich|
!>(! A,4!>)! A,,2!p! A,2 | A,4 G,4 | F,2 ^D,2 E,2 A,,2 | B,,6!f! A,2 | G,6 G,2 | F,2 E,2 A,2 B,2 | %21
w: sie- gen! Wer|kind- lich|||||
w: lei- ten, und|al- ler|||||
w: wer- de, und|füh- re|||||
!>(! E,6!>)! z2 |!pp! D,4 D,3 D, | E,6 z2 |!f!!<(! B,,4!<)! B,,3 B,, |!>(! !fermata![E,,E,]8!>)! |] %26
w: |||||
w: |||||
w: |||||

